X:51
T:Lassie of Gowie
S:American Veteran Fifer #51
C:Donated by John Benjamin, Fifer, Royal Oak, Mich.
M:6/8
L:1/8
Q:1/8=300
K:D 
%%MIDI program 72
%%MIDI transpose 8
%%MIDI ratio 3 1
|: D | DFA AFA | BdB AFA | DFA AGF | GFG E2E |
DFA AFA | BdB AFA | Bcd ece | d2- dz2 :|
|: f | fdf fdf | ecA A2f | fdf fdf | geg a2g |
fdf fdf | ecA AFA | Bcd ece | d2- dz2 :|



